X: 1
T: The Cobbler's
R: polka
M: 2/4
L: 1/8
K: Bmin
Bc|:"Bm"dB bB|"D"de f>e|"Bm"dB bB|"A"c/B/A/c/ ef/e/|!
"Bm"dB bB|"D"de f>e|"Bm"d>e "D"f/e/d|1"Bm" B2 B>c:|2 "Bm" B2B2||!
|:"Bm"fe/f/ ba|"D"fe f>e|"Bm"dB bB|"A"c/B/A/c/ ed/e/|!
"Bm"fe/f/ ba|"D"fe f>e|"Bm"d>e "D"f/e/d|1"Bm" B2 B2:|2 "Bm"B2 B>c||!


Tune 1841	Setting 15272

